images/themes/sigpacgo/nodpi/ic_annotationlayer_18dp.svg

<?xml version="1.0" encoding="UTF-8" standalone="no"?>
<svg
   xmlns:dc="http://purl.org/dc/elements/1.1/"
   xmlns:cc="http://creativecommons.org/ns#"
   xmlns:rdf="http://www.w3.org/1999/02/22-rdf-syntax-ns#"
   xmlns:svg="http://www.w3.org/2000/svg"
   xmlns="http://www.w3.org/2000/svg"
   xmlns:xlink="http://www.w3.org/1999/xlink"
   id="svg22"
   version="1.1"
   width="16"
   height="16">
  <metadata
     id="metadata28">
    <rdf:RDF>
      <cc:Work
         rdf:about="">
        <dc:format>image/svg+xml</dc:format>
        <dc:type
           rdf:resource="http://purl.org/dc/dcmitype/StillImage" />
        <dc:title></dc:title>
      </cc:Work>
    </rdf:RDF>
  </metadata>
  <defs
     id="defs26">
    <linearGradient
       id="linearGradient923">
      <stop
         id="stop919"
         offset="0"
         style="stop-color:#eeeeee;stop-opacity:1" />
      <stop
         id="stop921"
         offset="1"
         style="stop-color:#d7d7d7;stop-opacity:1" />
    </linearGradient>
    <linearGradient
       gradientTransform="translate(27.5,-7.853401)"
       id="a"
       gradientUnits="userSpaceOnUse"
       x1="4.5"
       x2="6.5"
       y1="3.5"
       y2="10.5">
      <stop
         offset="0"
         stop-color="#eee"
         id="stop2" />
      <stop
         offset="1"
         stop-color="#cfcfcf"
         id="stop4" />
    </linearGradient>
    <linearGradient
       gradientTransform="translate(0,1.0000001)"
       gradientUnits="userSpaceOnUse"
       y2="13"
       x2="9.8867512"
       y1="8"
       x1="7"
       id="linearGradient925"
       xlink:href="#linearGradient923" />
  </defs>
  <path
     d="M 3.5227993,14.500016 8,7.4999556 12.522865,14.500016 Z"
     style="fill:url(#linearGradient925);fill-opacity:1;fill-rule:evenodd;stroke:#888a85;stroke-width:0.999996;stroke-linejoin:round;stroke-miterlimit:0.4;stroke-dasharray:none;stroke-opacity:1"
     id="path6" />
  <path
     id="path2"
     overflow="visible"
     d="M 13,3.5 C 13,4.3284275 12.328428,5.0000001 11.5,5.0000001 10.671573,5.0000001 10,4.3284275 10,3.5 10,2.6715724 10.671573,2 11.5,2 12.328428,2 13,2.6715724 13,3.5 Z"
     style="fill:#888a85;fill-opacity:1;fill-rule:evenodd;stroke:none;stroke-width:1;stroke-linecap:round;stroke-linejoin:round;stroke-miterlimit:4;stroke-dasharray:none" />
  <g
     aria-label="a"
     transform="scale(0.98634874,1.0138402)"
     id="text917-3"
     style="font-style:normal;font-weight:normal;font-size:7.90153px;line-height:1.25;font-family:sans-serif;letter-spacing:0px;word-spacing:0px;fill:#888a85;fill-opacity:1;stroke:#888a85;stroke-width:2.4;stroke-linecap:round;stroke-linejoin:round;stroke-miterlimit:4;stroke-dasharray:none;stroke-opacity:1">
    <path
       d="m 4.4643282,4.4231378 q -0.8603716,0 -1.1921741,0.1967666 -0.3318026,0.1967666 -0.3318026,0.6713214 0,0.3781005 0.2469228,0.6018743 0.250781,0.2199156 0.6790378,0.2199156 0.5902998,0 0.9452513,-0.4166822 Q 5.1703731,5.2757931 5.1703731,4.5813227 V 4.4231378 Z M 5.8802762,4.129917 V 6.5952868 H 5.1703731 V 5.9393981 Q 4.9273085,6.3329314 4.5646406,6.5219816 4.2019728,6.7071737 3.6772618,6.7071737 q -0.6636051,0 -1.0571383,-0.3703842 -0.389675,-0.3742423 -0.389675,-0.9992657 0,-0.7291939 0.4861292,-1.0995781 0.4899875,-0.3703842 1.4583879,-0.3703842 h 0.9954075 v -0.069447 q 0,-0.4899874 -0.3240862,-0.7562011 -0.320228,-0.2700718 -0.9028115,-0.2700718 -0.3703842,0 -0.7214775,0.088738 -0.3510934,0.088738 -0.6751796,0.2662137 V 2.4709044 q 0.3896751,-0.1504686 0.7562011,-0.2237738 0.3665261,-0.077163 0.7137612,-0.077163 0.9375351,0 1.4005153,0.4861293 0.4629803,0.4861292 0.4629803,1.4738205 z"
       style="font-size:7.90153px;fill:#888a85;fill-opacity:1;stroke:#888a85;stroke-width:2.4;stroke-linecap:round;stroke-linejoin:round;stroke-miterlimit:4;stroke-dasharray:none;stroke-opacity:1"
       id="path851" />
  </g>
  <g
     aria-label="a"
     transform="scale(0.98634874,1.0138402)"
     id="text917"
     style="font-style:normal;font-weight:normal;font-size:7.90153px;line-height:1.25;font-family:sans-serif;letter-spacing:0px;word-spacing:0px;fill:#eeeeec;fill-opacity:1;stroke:#eeeeec;stroke-width:0.4;stroke-miterlimit:4;stroke-dasharray:none;stroke-opacity:1">
    <path
       d="m 4.4643282,4.4231378 q -0.8603716,0 -1.1921741,0.1967666 -0.3318026,0.1967666 -0.3318026,0.6713214 0,0.3781005 0.2469228,0.6018743 0.250781,0.2199156 0.6790378,0.2199156 0.5902998,0 0.9452513,-0.4166822 Q 5.1703731,5.2757931 5.1703731,4.5813227 V 4.4231378 Z M 5.8802762,4.129917 V 6.5952868 H 5.1703731 V 5.9393981 Q 4.9273085,6.3329314 4.5646406,6.5219816 4.2019728,6.7071737 3.6772618,6.7071737 q -0.6636051,0 -1.0571383,-0.3703842 -0.389675,-0.3742423 -0.389675,-0.9992657 0,-0.7291939 0.4861292,-1.0995781 0.4899875,-0.3703842 1.4583879,-0.3703842 h 0.9954075 v -0.069447 q 0,-0.4899874 -0.3240862,-0.7562011 -0.320228,-0.2700718 -0.9028115,-0.2700718 -0.3703842,0 -0.7214775,0.088738 -0.3510934,0.088738 -0.6751796,0.2662137 V 2.4709044 q 0.3896751,-0.1504686 0.7562011,-0.2237738 0.3665261,-0.077163 0.7137612,-0.077163 0.9375351,0 1.4005153,0.4861293 0.4629803,0.4861292 0.4629803,1.4738205 z"
       style="font-size:7.90153px;fill:#eeeeec;fill-opacity:1;stroke:#eeeeec;stroke-width:0.4;stroke-miterlimit:4;stroke-dasharray:none;stroke-opacity:1"
       id="path848" />
  </g>
  <path
     style="fill:#888a85;fill-opacity:1;fill-rule:evenodd;stroke:none;stroke-width:0.999999;stroke-linecap:round;stroke-linejoin:round"
     d="M 15,7.5 C 15,8.3284275 14.328428,9.0000001 13.5,9.0000001 12.671573,9.0000001 12,8.3284275 12,7.5 12,6.6715724 12.671573,6 13.5,6 14.328428,6 15,6.6715724 15,7.5 Z"
     overflow="visible"
     id="path2-3" />
</svg>

<svg xmlns="http://www.w3.org/2000/svg" xmlns:xlink="http://www.w3.org/1999/xlink" width="18" height="18" viewBox="0 0 18 18">
<defs>
<linearGradient id="linear-pattern-0" gradientUnits="userSpaceOnUse" x1="7" y1="8" x2="9.886751" y2="13" gradientTransform="matrix(1, 0, 0, 1, 0, 1)">
<stop offset="0" stop-color="rgb(93.333333%, 93.333333%, 93.333333%)" stop-opacity="1"/>
<stop offset="1" stop-color="rgb(84.313725%, 84.313725%, 84.313725%)" stop-opacity="1"/>
</linearGradient>
</defs>
<path fill-rule="evenodd" fill="url(#linear-pattern-0)" stroke-width="0.999996" stroke-linecap="butt" stroke-linejoin="round" stroke="rgb(53.333333%, 54.117647%, 52.156863%)" stroke-opacity="1" stroke-miterlimit="0.4" d="M 3.524306 14.5 L 8 7.5 L 12.524306 14.5 Z M 3.524306 14.5 " transform="matrix(1.125, 0, 0, 1.125, 0, 0)"/>
<path fill-rule="evenodd" fill="rgb(53.333333%, 54.117647%, 52.156863%)" fill-opacity="1" d="M 14.625 3.9375 C 14.625 4.871094 13.871094 5.625 12.9375 5.625 C 12.003906 5.625 11.25 4.871094 11.25 3.9375 C 11.25 3.003906 12.003906 2.25 12.9375 2.25 C 13.871094 2.25 14.625 3.003906 14.625 3.9375 Z M 14.625 3.9375 "/>
<path fill-rule="nonzero" fill="rgb(53.333333%, 54.117647%, 52.156863%)" fill-opacity="1" stroke-width="2.4" stroke-linecap="round" stroke-linejoin="round" stroke="rgb(53.333333%, 54.117647%, 52.156863%)" stroke-opacity="1" stroke-miterlimit="4" d="M 4.463713 4.421445 C 3.889908 4.421445 3.492116 4.489942 3.273859 4.620085 C 3.052081 4.750228 2.939432 4.976266 2.939432 5.29135 C 2.939432 5.544787 3.023919 5.743427 3.185852 5.894119 C 3.354825 6.041386 3.580123 6.113307 3.865266 6.113307 C 4.259537 6.113307 4.576362 5.97289 4.812221 5.695479 C 5.0516 5.414644 5.171289 5.044763 5.171289 4.582412 L 5.171289 4.421445 Z M 5.878865 4.130335 L 5.878865 6.596207 L 5.171289 6.596207 L 5.171289 5.938641 C 5.009356 6.202353 4.80518 6.397568 4.565801 6.520861 C 4.322902 6.644155 4.027199 6.705801 3.678691 6.705801 C 3.235136 6.705801 2.883108 6.582508 2.619087 6.335921 C 2.358587 6.085909 2.231857 5.753701 2.231857 5.335873 C 2.231857 4.852973 2.393789 4.486517 2.717655 4.236505 C 3.041521 3.989918 3.530839 3.866624 4.17505 3.866624 L 5.171289 3.866624 L 5.171289 3.798128 C 5.171289 3.47277 5.06216 3.219333 4.847423 3.041242 C 4.632686 2.863151 4.333463 2.770681 3.942712 2.770681 C 3.696292 2.770681 3.456913 2.801504 3.221055 2.859726 C 2.988716 2.921373 2.763419 3.006994 2.545161 3.126862 L 2.545161 2.469297 C 2.805662 2.369977 3.059122 2.294631 3.302021 2.246683 C 3.548441 2.195311 3.784299 2.171337 4.016638 2.171337 C 4.643247 2.171337 5.107924 2.332304 5.417709 2.657662 C 5.727493 2.979595 5.878865 3.47277 5.878865 4.130335 Z M 5.878865 4.130335 " transform="matrix(1.109642, 0, 0, 1.14057, 0, 0)"/>
<path fill-rule="nonzero" fill="rgb(93.333333%, 93.333333%, 92.54902%)" fill-opacity="1" stroke-width="0.4" stroke-linecap="butt" stroke-linejoin="miter" stroke="rgb(93.333333%, 93.333333%, 92.54902%)" stroke-opacity="1" stroke-miterlimit="4" d="M 4.463713 4.421445 C 3.889908 4.421445 3.492116 4.489942 3.273859 4.620085 C 3.052081 4.750228 2.939432 4.976266 2.939432 5.29135 C 2.939432 5.544787 3.023919 5.743427 3.185852 5.894119 C 3.354825 6.041386 3.580123 6.113307 3.865266 6.113307 C 4.259537 6.113307 4.576362 5.97289 4.812221 5.695479 C 5.0516 5.414644 5.171289 5.044763 5.171289 4.582412 L 5.171289 4.421445 Z M 5.878865 4.130335 L 5.878865 6.596207 L 5.171289 6.596207 L 5.171289 5.938641 C 5.009356 6.202353 4.80518 6.397568 4.565801 6.520861 C 4.322902 6.644155 4.027199 6.705801 3.678691 6.705801 C 3.235136 6.705801 2.883108 6.582508 2.619087 6.335921 C 2.358587 6.085909 2.231857 5.753701 2.231857 5.335873 C 2.231857 4.852973 2.393789 4.486517 2.717655 4.236505 C 3.041521 3.989918 3.530839 3.866624 4.17505 3.866624 L 5.171289 3.866624 L 5.171289 3.798128 C 5.171289 3.47277 5.06216 3.219333 4.847423 3.041242 C 4.632686 2.863151 4.333463 2.770681 3.942712 2.770681 C 3.696292 2.770681 3.456913 2.801504 3.221055 2.859726 C 2.988716 2.921373 2.763419 3.006994 2.545161 3.126862 L 2.545161 2.469297 C 2.805662 2.369977 3.059122 2.294631 3.302021 2.246683 C 3.548441 2.195311 3.784299 2.171337 4.016638 2.171337 C 4.643247 2.171337 5.107924 2.332304 5.417709 2.657662 C 5.727493 2.979595 5.878865 3.47277 5.878865 4.130335 Z M 5.878865 4.130335 " transform="matrix(1.109642, 0, 0, 1.14057, 0, 0)"/>
<path fill-rule="evenodd" fill="rgb(53.333333%, 54.117647%, 52.156863%)" fill-opacity="1" d="M 16.875 8.4375 C 16.875 9.371094 16.121094 10.125 15.1875 10.125 C 14.253906 10.125 13.5 9.371094 13.5 8.4375 C 13.5 7.503906 14.253906 6.75 15.1875 6.75 C 16.121094 6.75 16.875 7.503906 16.875 8.4375 Z M 16.875 8.4375 "/>
</svg>
